svgs/solid/distribute-spacing-vertical.svg

<svg xmlns="http://www.w3.org/2000/svg" viewBox="0 0 512 512"><!--! Font Awesome Pro 6.5.1 by @fontawesome - https://fontawesome.com License - https://fontawesome.com/license (Commercial License) Copyright 2023 Fonticons, Inc. --><path d="M0 56C0 42.7 10.7 32 24 32H488c13.3 0 24 10.7 24 24s-10.7 24-24 24H24C10.7 80 0 69.3 0 56zM96 208c0-26.5 21.5-48 48-48H368c26.5 0 48 21.5 48 48v96c0 26.5-21.5 48-48 48H144c-26.5 0-48-21.5-48-48V208zM24 432H488c13.3 0 24 10.7 24 24s-10.7 24-24 24H24c-13.3 0-24-10.7-24-24s10.7-24 24-24z"/></svg>

<svg xmlns="http://www.w3.org/2000/svg" viewBox="0 0 512 512"><!--! Font Awesome Pro 6.1.1 by @fontawesome - https://fontawesome.com License - https://fontawesome.com/license (Commercial License) Copyright 2022 Fonticons, Inc. --><path d="M0 56C0 42.75 10.75 32 24 32H488C501.3 32 512 42.75 512 56C512 69.25 501.3 80 488 80H24C10.75 80 0 69.25 0 56zM96 208C96 181.5 117.5 160 144 160H368C394.5 160 416 181.5 416 208V304C416 330.5 394.5 352 368 352H144C117.5 352 96 330.5 96 304V208zM488 432C501.3 432 512 442.7 512 456C512 469.3 501.3 480 488 480H24C10.75 480 0 469.3 0 456C0 442.7 10.75 432 24 432H488z"/></svg>
